X:22
T:Barren Rocks of Aden, The
R:polka
C:A MacKellar
S:Mary Bergin
Z:id:hn-polka-22
M:2/4
L:1/8
K:D
f2 f>e|df A>d|ce AB/c/|dA de|f2 f>e|df A>d|ce AB/c/|d2 d2:|
|:af de/f/|eg A>f|ge ce|df A2|af de/f/|eg A>f|ge ce|d2 d2:|
<end>
<start>
